content-save-cog.svg

<svg fill="currentColor" viewBox="0 0 24 24"><path d="M21 11.7V7l-4-4H5c-1.1 0-2 .9-2 2v14c0 1.1.9 2 2 2h6.7c-.3-.7-.5-1.4-.6-2.2C9.9 18.4 9 17.3 9 16c0-1.7 1.3-3 3-3 .3 0 .6.1.9.2C14.2 11.8 16 11 18 11c1.1 0 2.1.2 3 .7M15 9H5V5h10zm6.7 9.6v-1l1.1-.8c.1-.1.2-.2.1-.3l-1-1.7c0-.1-.2-.1-.3-.1l-1.2.5c-.3-.2-.6-.4-.9-.5l-.2-1.3c0-.1-.1-.2-.2-.2h-2c-.2 0-.3.1-.3.2l-.2 1.3c-.3.2-.5.3-.8.5l-1.2-.5c-.1 0-.2 0-.3.1l-1 1.7c0 .1 0 .2.1.3l1.1.8v1l-1.1.8c-.1.1-.2.2-.1.3l1 1.7c.1.1.2.1.3.1l1.2-.5c.2.2.5.4.8.5l.2 1.3c.1.1.2.2.3.2h2c.1 0 .2-.1.2-.2l.2-1.3c.3-.2.5-.3.8-.5l1.2.4c.1 0 .2 0 .3-.1l1-1.7c.1-.1.1-.2 0-.2zm-3.7.9c-.8 0-1.5-.7-1.5-1.5s.7-1.5 1.5-1.5 1.5.7 1.5 1.5-.7 1.5-1.5 1.5"/></svg>

<svg  viewBox="0 0 24 24" fill="currentColor"><path  d="M21 11.7V7L17 3H5C3.9 3 3 3.9 3 5V19C3 20.1 3.9 21 5 21H11.7C11.4 20.3 11.2 19.6 11.1 18.8C9.9 18.4 9 17.3 9 16C9 14.3 10.3 13 12 13C12.3 13 12.6 13.1 12.9 13.2C14.2 11.8 16 11 18 11C19.1 11 20.1 11.2 21 11.7M15 9H5V5H15V9M21.7 18.6V17.6L22.8 16.8C22.9 16.7 23 16.6 22.9 16.5L21.9 14.8C21.9 14.7 21.7 14.7 21.6 14.7L20.4 15.2C20.1 15 19.8 14.8 19.5 14.7L19.3 13.4C19.3 13.3 19.2 13.2 19.1 13.2H17.1C16.9 13.2 16.8 13.3 16.8 13.4L16.6 14.7C16.3 14.9 16.1 15 15.8 15.2L14.6 14.7C14.5 14.7 14.4 14.7 14.3 14.8L13.3 16.5C13.3 16.6 13.3 16.7 13.4 16.8L14.5 17.6V18.6L13.4 19.4C13.3 19.5 13.2 19.6 13.3 19.7L14.3 21.4C14.4 21.5 14.5 21.5 14.6 21.5L15.8 21C16 21.2 16.3 21.4 16.6 21.5L16.8 22.8C16.9 22.9 17 23 17.1 23H19.1C19.2 23 19.3 22.9 19.3 22.8L19.5 21.5C19.8 21.3 20 21.2 20.3 21L21.5 21.4C21.6 21.4 21.7 21.4 21.8 21.3L22.8 19.6C22.9 19.5 22.9 19.4 22.8 19.4L21.7 18.6M18 19.5C17.2 19.5 16.5 18.8 16.5 18S17.2 16.5 18 16.5 19.5 17.2 19.5 18 18.8 19.5 18 19.5Z"/></svg>
